X:1
T:Title
L:1/8
M:4/4
K:Eb
V:1 treble nm="Grand Piano"
V:1
 z4 z2[Q:1/4=100] B,B, | E2 E2 EEFE | E2 D4 B,B, | F2 F2 FAGF | E6 GA | B2 B2 BBcB | A>G AG A2 BA | %7
 G>F GF G2 AG | F6 GA | B2 B2 BBcB | A>G AG A2 BA | G>F GF G2 AG | F6 B,B, | AG F2 FE/F/ GF | %14
 E6 B,B, | AG F2 FE/F/ GF | E6 z2 |] %17

